projects/cadence/stacked/color/cadence-stacked-color.svg

<svg xmlns="http://www.w3.org/2000/svg" role="img" viewBox="15.40 29.40 1071.20 764.20"><path fill="#1c1c2c" fill-rule="evenodd" d="M559.57 55.282c-.98 7.846-4.691 15.108-9.268 18.137C545.548 76.565 532.503 80 525.308 80c-7.811 0-10.995-1.773-19.37-10.788l-7.501-8.074-11.968 5.011c-15.921 6.667-15.803 6.535-14.339 15.949 1.713 11.02.799 14.201-5.991 20.845-3.136 3.069-9.063 7.358-13.171 9.531-11.809 6.248-18.043 5.486-32.103-3.925l-3.636-2.433-9.864 8.768c-14.107 12.539-13.352 10.744-8.499 20.208 5.231 10.203 5.48 15.145 1.177 23.326-3.931 7.474-10.593 15.239-15.532 18.106-5.979 3.469-10.241 3.886-19.977 1.954-4.748-.942-8.863-1.483-9.144-1.201-.281.281-3.581 6.215-7.332 13.187l-6.821 12.676 7.315 7.315c8.204 8.204 9.111 10.543 8.136 20.98-.685 7.337-3.888 16.461-7.783 22.169-3.553 5.208-9.9 8.04-20.082 8.963l-7.586.687-.651 4.623c-.358 2.543-.927 9.622-1.264 15.732l-.613 11.109 6.271 2.118c13.565 4.581 17.205 10.391 17.85 28.495.382 10.696.204 12.326-1.809 16.625-1.899 4.055-3.319 5.385-9.502 8.903-3.998 2.274-7.888 4.882-8.644 5.795-2.035 2.456-1.609 11.484 1.044 22.112l2.313 9.266 6.134-.625c9.139-.932 14.163.777 20 6.803 6.32 6.526 10.592 15.899 11.347 24.901.798 9.519-1.19 14.343-8.716 21.154l-5.848 5.292 7.794 12.29c4.287 6.76 8.252 12.748 8.813 13.309.691.691 3.321.188 8.191-1.569 8.532-3.077 14.781-3.287 19.843-.665 4.402 2.28 13.62 11.621 18.198 18.442 3.056 4.553 3.234 5.287 2.788 11.5-.289 4.031-1.335 8.318-2.664 10.92-4.772 9.346-5.271 8.109 7.187 17.824 6.161 4.804 11.792 9.186 12.514 9.738.969.741 2.41-.13 5.5-3.325 4.552-4.705 12.594-8.996 16.892-9.011 3.832-.014 14.781 4.137 21.4 8.113 11.452 6.88 15.672 15.515 13.453 27.523-.611 3.306-.689 6.123-.184 6.628 1.421 1.421 27.841 9.526 28.838 8.846.5-.341 2.535-3.321 4.521-6.622 6.718-11.168 11.633-14.022 22.717-13.19 18.57 1.394 25.465 5.261 32.05 17.975l4.5 8.689 14.731.014 14.731.014.575-2.75c2.602-12.434 4.674-16.8 9.808-20.673 7.745-5.842 28.439-8.938 35.33-5.286 1.746.925 6 4.838 9.454 8.696 4.365 4.876 6.988 7.013 8.606 7.013 2.107 0 21.722-7.737 25.207-9.943 1.24-.785 1.258-2.044.127-9.009-1.045-6.433-1.066-8.987-.104-12.424 2.823-10.083 20.792-22.625 32.411-22.623 4.078.001 12.633 3.535 19.253 7.954l3.13 2.089 4.056-3.39c10.846-9.061 18.234-16.128 17.974-17.19-.442-1.802-38.717-38.464-40.155-38.464-.695 0-4.384 2.606-8.198 5.792C693.562 501.916 662.36 516.837 621 524.17c-11.473 2.034-52.724 1.719-65.5-.5-84.861-14.743-146.575-67.705-170.078-145.958-6.308-21.001-7.658-30.582-8.152-57.821-.439-24.273-.33-26.335 2.093-39.5 7.388-40.136 21.269-69.935 46.796-100.46 24.372-29.144 55.93-50.503 92.305-62.473 40.512-13.331 80.517-14.957 119.946-4.875 15.245 3.898 23.938 7.08 38.09 13.942 15.08 7.312 30.272 16.771 42.922 26.726 6.921 5.447 9.276 6.803 10.5 6.046 1.82-1.125 22.871-28.5 29.705-38.629 2.535-3.757 4.219-7.17 3.741-7.583-.477-.413-5.898-4.655-12.046-9.426l-11.177-8.676-7.629 5.474c-8.106 5.815-12.193 7.17-18.561 6.152-9.766-1.562-24.278-10.281-27.932-16.783-1.987-3.533-2.465-6.041-2.826-14.819l-.436-10.566-12.13-3.759c-15.466-4.792-16.501-4.77-19.459.409-3.061 5.36-8.83 11.681-12.297 13.474-3.325 1.719-14.963 1.897-23.441.358-11.271-2.046-16.885-6.947-21.008-18.338l-2.202-6.085-15.994-.274-15.994-.274-.666 5.33m6.43 72.673C508.994 134.18 457.985 165.912 426.076 215c-6.596 10.147-15.603 29.334-19.951 42.5-25.002 75.711-.163 157.112 63.375 207.693 21.608 17.201 51.19 30.743 80.5 36.851 14.874 3.099 45.867 3.863 62 1.527 38.441-5.565 74.208-22.263 98.967-46.201l9.466-9.154-13.139-13.858c-7.227-7.622-16.062-16.733-19.634-20.246l-6.493-6.389-7.333 6.029c-18.013 14.807-39.103 25.296-59.976 29.828-11.622 2.523-44.703 2.293-55.858-.389-24.44-5.876-43.429-15.996-60.403-32.191-18.486-17.637-30.035-37.32-37.245-63.479-2.038-7.396-2.588-12.173-3.053-26.521-.662-20.443.34-29.666 4.74-43.614 3.938-12.483 12.52-29.943 18.873-38.399 6.205-8.261 20.791-22.357 28.59-27.633 32.396-21.912 70.059-29.865 105.998-22.381 19.012 3.958 32.962 10.432 51.34 23.825 7.205 5.251 7.378 5.316 9.428 3.526C682.249 211.1 712 178.26 712 176.882c0-1.516-11.932-11.334-21.948-18.06-22.083-14.828-46.632-24.496-74.552-29.361-10.501-1.83-38.683-2.688-49.5-1.506M114.113 589.128c-7.973 1.324-22.747 6.508-29.85 10.473-33.003 18.425-52.157 56.6-46.862 93.399 4.811 33.443 23.456 58.9 53.208 72.646 11.443 5.287 21.071 7.44 36.118 8.076 26.546 1.123 45.468-4.741 64.912-20.116 8.131-6.429 19.452-19.226 18.673-21.106-.227-.55-5.405-4.366-11.505-8.479l-11.091-7.479-1.599 2.479c-5.274 8.174-15.793 17.064-26.053 22.017-12.024 5.804-30.342 7.927-43.161 5.002-7.263-1.657-22.354-9.05-27.903-13.669C73.74 719.67 65.725 701.979 65.725 681c0-19.6 5.606-33.324 19.249-47.124 7.029-7.109 10.018-9.332 17.026-12.66 10.612-5.039 16.263-6.216 29.839-6.216 19.716 0 31.205 4.921 45.972 19.688 5.121 5.122 9.782 9.312 10.357 9.312.884 0 18.562-11.731 21.202-14.069 1.221-1.082-7.373-11.951-13.961-17.66-19.285-16.708-39.711-24.364-64.409-24.141-6.325.057-13.924.506-16.887.998M468 622c0 17.05-.221 31-.491 31-.271 0-2.633-1.644-5.25-3.653C451.479 641.071 438.683 637 423.45 637c-39.248 0-69.415 29.769-69.415 68.5 0 31.712 20.977 58.702 51.739 66.57 9.173 2.346 24.023 2.538 32.98.426 7.336-1.73 17.987-6.889 24.525-11.879l4.631-3.535.295 6.709.295 6.709 13.75.278 13.75.278V591h-28v31m-199.469 16.044c-11.915 1.874-26.087 7.827-33.976 14.273l-2.945 2.405 5.832 9.639c3.207 5.302 6.245 9.639 6.75 9.639.504 0 3.93-1.819 7.613-4.042 9.395-5.672 15.833-7.433 27.222-7.447 8.267-.009 10.183.327 14.491 2.544 2.951 1.519 6.148 4.24 7.886 6.712 2.488 3.54 2.992 5.353 3.388 12.196.354 6.119.158 8.037-.819 8.037-6.848 0-43.054 3.399-48.516 4.554-14.828 3.137-24.676 10.084-30.178 21.286-2.503 5.098-2.779 6.703-2.779 16.16 0 9.56.255 11.003 2.847 16.117 3.498 6.901 10.968 14.648 17.609 18.262 9.065 4.934 24.106 6.857 36.158 4.622 7.531-1.396 18.523-7.071 24.076-12.43 3.917-3.78 4.781-4.237 5.246-2.773.871 2.746 7.198 8.794 11.32 10.822 2.97 1.461 6.123 1.846 15.244 1.861l11.5.019.292-10c.408-13.958.208-14.5-5.377-14.5-8.975 0-8.415 2.321-8.415-34.899 0-18.055-.453-35.219-1.008-38.141-1.485-7.83-5.233-15.235-10.638-21.012-9.036-9.661-19.369-13.768-36.305-14.43-5.802-.227-13.235.009-16.518.526m297.469.447c-18.533 4.163-35.639 17.861-44.369 35.531-16.484 33.36-4.873 72.662 26.869 90.95 22.393 12.902 54.252 11.758 75.356-2.704C629.3 758.537 641 747.07 641 745.465c0-.658-4.33-4.37-9.623-8.249l-9.623-7.054-5.127 5.239c-9.821 10.034-20.286 14.099-34.546 13.417-10.499-.502-19.393-4.224-26.922-11.266-5.536-5.179-10.973-14.561-11.384-19.645l-.275-3.407 52.25-.259 52.25-.259v-5.919c0-32.817-16.346-57.866-44.205-67.739-9.197-3.259-27.495-4.146-37.795-1.833m149 .391c-6.936 2.239-10.549 4.128-16.318 8.531l-4.585 3.5-.298-5.707-.299-5.706h-27l-.257 65.778-.257 65.779 13.757-.279 13.757-.278.5-43.024.5-43.024 3.31-6.721c5.268-10.696 14.085-15.953 26.753-15.953 12.131 0 21.963 5.949 26.813 16.222 2.038 4.319 2.144 6.274 2.624 48.5l.5 44 13.75.278 13.75.278-.017-44.278c-.014-34.141-.339-45.794-1.421-50.9-3.854-18.179-17.547-32.831-35.062-37.517-7.25-1.939-23.748-1.657-30.5.521m137.224.074c-23.764 6.425-41.575 23.016-48.744 45.405-5.55 17.33-4.149 34.545 4.199 51.617 3.801 7.773 6.103 10.947 12.795 17.639 13.81 13.81 30.174 20.33 51.116 20.366 17.251.029 29.232-4.161 42.91-15.007 5.956-4.723 12.5-11.965 12.5-13.832 0-.536-4.319-4.118-9.598-7.961l-9.598-6.987-5.779 5.779c-3.53 3.53-8.444 7.09-12.631 9.152-6.525 3.212-7.377 3.373-17.873 3.373-10.299 0-11.459-.207-17.701-3.165-17.677-8.375-27.853-26.988-25.121-45.953 5.305-36.826 48.731-51.001 73.927-24.132 2.45 2.612 4.707 4.75 5.017 4.75 1.417 0 19.317-13.64 19.336-14.734.035-2.07-14.271-15.553-20.313-19.143-11.211-6.663-17.639-8.362-33.166-8.768-11.599-.304-15.248-.029-21.276 1.601M984 638.555c-21.541 4.627-40.834 22.451-48.647 44.945-2.501 7.201-2.78 9.348-2.794 21.5-.018 15.563 1.268 21.157 7.57 32.924 9.047 16.893 21.755 27.219 40.896 33.229 6.393 2.007 9.501 2.341 21.475 2.306 12.576-.036 14.789-.315 21.756-2.745 4.267-1.487 10.342-4.15 13.5-5.917 6.196-3.465 21.715-17.911 21.112-19.651-.202-.583-4.643-4.197-9.868-8.031l-9.5-6.97-6 5.754c-7.278 6.98-9.537 8.419-17.363 11.055-11.757 3.961-27.386 2.117-37.219-4.39-8.247-5.457-17.329-18.039-18.092-25.064l-.326-3 52.859-.259 52.858-.259-.731-11.241c-.91-13.987-2.392-19.951-7.639-30.741-5.23-10.756-16.831-22.747-26.847-27.75-13.653-6.818-31.628-8.997-47-5.695m-569.098 23.971c-21.464 5.21-36.793 28.225-33.04 49.604 2.536 14.442 11.649 26.347 25.073 32.755 30.894 14.748 65.687-11.452 60.925-45.878-2.481-17.932-17.294-33.703-34.746-36.992-6.901-1.3-11.255-1.178-18.212.511m153.27.928c-10.644 3.954-19.886 13.389-23.498 23.989L543.121 692h37.94c42.776 0 39.676.724 35.417-8.271-8.793-18.573-29.494-27.261-48.306-20.275m420.114-1.062c-6.562 2.142-12.425 5.98-17.622 11.536-4.384 4.687-9.631 13.83-9.654 16.822-.008.978 8.237 1.25 37.92 1.25h37.93l-.852-2.971c-2.841-9.907-11.966-20.287-21.79-24.789-6.902-3.163-19.213-4.04-25.932-1.848M283 715.55c-7.975.711-16.868 1.811-19.762 2.445-11.597 2.543-17.287 12.777-12.597 22.66 2.284 4.815 6.89 8.01 14.27 9.901 5.242 1.343 7.393 1.422 12.832.475 17.152-2.987 27.226-13.998 27.247-29.781L305 714l-3.75.129c-2.062.071-10.275.71-18.25 1.421"/></svg>

<svg xmlns="http://www.w3.org/2000/svg" width="1100" height="800" viewBox="0 0 1100 800" version="1.1"><path d="M 559.570 55.282 C 558.590 63.128, 554.879 70.390, 550.302 73.419 C 545.548 76.565, 532.503 80, 525.308 80 C 517.497 80, 514.313 78.227, 505.938 69.212 L 498.437 61.138 486.469 66.149 C 470.548 72.816, 470.666 72.684, 472.130 82.098 C 473.843 93.118, 472.929 96.299, 466.139 102.943 C 463.003 106.012, 457.076 110.301, 452.968 112.474 C 441.159 118.722, 434.925 117.960, 420.865 108.549 L 417.229 106.116 407.365 114.884 C 393.258 127.423, 394.013 125.628, 398.866 135.092 C 404.097 145.295, 404.346 150.237, 400.043 158.418 C 396.112 165.892, 389.450 173.657, 384.511 176.524 C 378.532 179.993, 374.270 180.410, 364.534 178.478 C 359.786 177.536, 355.671 176.995, 355.390 177.277 C 355.109 177.558, 351.809 183.492, 348.058 190.464 L 341.237 203.140 348.552 210.455 C 356.756 218.659, 357.663 220.998, 356.688 231.435 C 356.003 238.772, 352.800 247.896, 348.905 253.604 C 345.352 258.812, 339.005 261.644, 328.823 262.567 L 321.237 263.254 320.586 267.877 C 320.228 270.420, 319.659 277.499, 319.322 283.609 L 318.709 294.718 324.980 296.836 C 338.545 301.417, 342.185 307.227, 342.830 325.331 C 343.212 336.027, 343.034 337.657, 341.021 341.956 C 339.122 346.011, 337.702 347.341, 331.519 350.859 C 327.521 353.133, 323.631 355.741, 322.875 356.654 C 320.840 359.110, 321.266 368.138, 323.919 378.766 L 326.232 388.032 332.366 387.407 C 341.505 386.475, 346.529 388.184, 352.366 394.210 C 358.686 400.736, 362.958 410.109, 363.713 419.111 C 364.511 428.630, 362.523 433.454, 354.997 440.265 L 349.149 445.557 356.943 457.847 C 361.230 464.607, 365.195 470.595, 365.756 471.156 C 366.447 471.847, 369.077 471.344, 373.947 469.587 C 382.479 466.510, 388.728 466.300, 393.790 468.922 C 398.192 471.202, 407.410 480.543, 411.988 487.364 C 415.044 491.917, 415.222 492.651, 414.776 498.864 C 414.487 502.895, 413.441 507.182, 412.112 509.784 C 407.340 519.130, 406.841 517.893, 419.299 527.608 C 425.460 532.412, 431.091 536.794, 431.813 537.346 C 432.782 538.087, 434.223 537.216, 437.313 534.021 C 441.865 529.316, 449.907 525.025, 454.205 525.010 C 458.037 524.996, 468.986 529.147, 475.605 533.123 C 487.057 540.003, 491.277 548.638, 489.058 560.646 C 488.447 563.952, 488.369 566.769, 488.874 567.274 C 490.295 568.695, 516.715 576.800, 517.712 576.120 C 518.212 575.779, 520.247 572.799, 522.233 569.498 C 528.951 558.330, 533.866 555.476, 544.950 556.308 C 563.520 557.702, 570.415 561.569, 577 574.283 L 581.500 582.972 596.231 582.986 L 610.962 583 611.537 580.250 C 614.139 567.816, 616.211 563.450, 621.345 559.577 C 629.090 553.735, 649.784 550.639, 656.675 554.291 C 658.421 555.216, 662.675 559.129, 666.129 562.987 C 670.494 567.863, 673.117 570, 674.735 570 C 676.842 570, 696.457 562.263, 699.942 560.057 C 701.182 559.272, 701.200 558.013, 700.069 551.048 C 699.024 544.615, 699.003 542.061, 699.965 538.624 C 702.788 528.541, 720.757 515.999, 732.376 516.001 C 736.454 516.002, 745.009 519.536, 751.629 523.955 L 754.759 526.044 758.815 522.654 C 769.661 513.593, 777.049 506.526, 776.789 505.464 C 776.347 503.662, 738.072 467, 736.634 467 C 735.939 467, 732.250 469.606, 728.436 472.792 C 693.562 501.916, 662.360 516.837, 621 524.170 C 609.527 526.204, 568.276 525.889, 555.500 523.670 C 470.639 508.927, 408.925 455.965, 385.422 377.712 C 379.114 356.711, 377.764 347.130, 377.270 319.891 C 376.831 295.618, 376.940 293.556, 379.363 280.391 C 386.751 240.255, 400.632 210.456, 426.159 179.931 C 450.531 150.787, 482.089 129.428, 518.464 117.458 C 558.976 104.127, 598.981 102.501, 638.410 112.583 C 653.655 116.481, 662.348 119.663, 676.500 126.525 C 691.580 133.837, 706.772 143.296, 719.422 153.251 C 726.343 158.698, 728.698 160.054, 729.922 159.297 C 731.742 158.172, 752.793 130.797, 759.627 120.668 C 762.162 116.911, 763.846 113.498, 763.368 113.085 C 762.891 112.672, 757.470 108.430, 751.322 103.659 L 740.145 94.983 732.516 100.457 C 724.410 106.272, 720.323 107.627, 713.955 106.609 C 704.189 105.047, 689.677 96.328, 686.023 89.826 C 684.036 86.293, 683.558 83.785, 683.197 75.007 L 682.761 64.441 670.631 60.682 C 655.165 55.890, 654.130 55.912, 651.172 61.091 C 648.111 66.451, 642.342 72.772, 638.875 74.565 C 635.550 76.284, 623.912 76.462, 615.434 74.923 C 604.163 72.877, 598.549 67.976, 594.426 56.585 L 592.224 50.500 576.230 50.226 L 560.236 49.952 559.570 55.282 M 566 127.955 C 508.994 134.180, 457.985 165.912, 426.076 215 C 419.480 225.147, 410.473 244.334, 406.125 257.500 C 381.123 333.211, 405.962 414.612, 469.500 465.193 C 491.108 482.394, 520.690 495.936, 550 502.044 C 564.874 505.143, 595.867 505.907, 612 503.571 C 650.441 498.006, 686.208 481.308, 710.967 457.370 L 720.433 448.216 707.294 434.358 C 700.067 426.736, 691.232 417.625, 687.660 414.112 L 681.167 407.723 673.834 413.752 C 655.821 428.559, 634.731 439.048, 613.858 443.580 C 602.236 446.103, 569.155 445.873, 558 443.191 C 533.560 437.315, 514.571 427.195, 497.597 411 C 479.111 393.363, 467.562 373.680, 460.352 347.521 C 458.314 340.125, 457.764 335.348, 457.299 321 C 456.637 300.557, 457.639 291.334, 462.039 277.386 C 465.977 264.903, 474.559 247.443, 480.912 238.987 C 487.117 230.726, 501.703 216.630, 509.502 211.354 C 541.898 189.442, 579.561 181.489, 615.500 188.973 C 634.512 192.931, 648.462 199.405, 666.840 212.798 C 674.045 218.049, 674.218 218.114, 676.268 216.324 C 682.249 211.100, 712 178.260, 712 176.882 C 712 175.366, 700.068 165.548, 690.052 158.822 C 667.969 143.994, 643.420 134.326, 615.500 129.461 C 604.999 127.631, 576.817 126.773, 566 127.955 M 114.113 589.128 C 106.140 590.452, 91.366 595.636, 84.263 599.601 C 51.260 618.026, 32.106 656.201, 37.401 693 C 42.212 726.443, 60.857 751.900, 90.609 765.646 C 102.052 770.933, 111.680 773.086, 126.727 773.722 C 153.273 774.845, 172.195 768.981, 191.639 753.606 C 199.770 747.177, 211.091 734.380, 210.312 732.500 C 210.085 731.950, 204.907 728.134, 198.807 724.021 L 187.716 716.542 186.117 719.021 C 180.843 727.195, 170.324 736.085, 160.064 741.038 C 148.040 746.842, 129.722 748.965, 116.903 746.040 C 109.640 744.383, 94.549 736.990, 89 732.371 C 73.740 719.670, 65.725 701.979, 65.725 681 C 65.725 661.400, 71.331 647.676, 84.974 633.876 C 92.003 626.767, 94.992 624.544, 102 621.216 C 112.612 616.177, 118.263 615, 131.839 615 C 151.555 615, 163.044 619.921, 177.811 634.688 C 182.932 639.810, 187.593 644, 188.168 644 C 189.052 644, 206.730 632.269, 209.370 629.931 C 210.591 628.849, 201.997 617.980, 195.409 612.271 C 176.124 595.563, 155.698 587.907, 131 588.130 C 124.675 588.187, 117.076 588.636, 114.113 589.128 M 468 622 C 468 639.050, 467.779 653, 467.509 653 C 467.238 653, 464.876 651.356, 462.259 649.347 C 451.479 641.071, 438.683 637, 423.450 637 C 384.202 637, 354.035 666.769, 354.035 705.500 C 354.035 737.212, 375.012 764.202, 405.774 772.070 C 414.947 774.416, 429.797 774.608, 438.754 772.496 C 446.090 770.766, 456.741 765.607, 463.279 760.617 L 467.910 757.082 468.205 763.791 L 468.500 770.500 482.250 770.778 L 496 771.056 496 681.028 L 496 591 482 591 L 468 591 468 622 M 268.531 638.044 C 256.616 639.918, 242.444 645.871, 234.555 652.317 L 231.610 654.722 237.442 664.361 C 240.649 669.663, 243.687 674, 244.192 674 C 244.696 674, 248.122 672.181, 251.805 669.958 C 261.200 664.286, 267.638 662.525, 279.027 662.511 C 287.294 662.502, 289.210 662.838, 293.518 665.055 C 296.469 666.574, 299.666 669.295, 301.404 671.767 C 303.892 675.307, 304.396 677.120, 304.792 683.963 C 305.146 690.082, 304.950 692, 303.973 692 C 297.125 692, 260.919 695.399, 255.457 696.554 C 240.629 699.691, 230.781 706.638, 225.279 717.840 C 222.776 722.938, 222.500 724.543, 222.500 734 C 222.500 743.560, 222.755 745.003, 225.347 750.117 C 228.845 757.018, 236.315 764.765, 242.956 768.379 C 252.021 773.313, 267.062 775.236, 279.114 773.001 C 286.645 771.605, 297.637 765.930, 303.190 760.571 C 307.107 756.791, 307.971 756.334, 308.436 757.798 C 309.307 760.544, 315.634 766.592, 319.756 768.620 C 322.726 770.081, 325.879 770.466, 335 770.481 L 346.500 770.500 346.792 760.500 C 347.200 746.542, 347 746, 341.415 746 C 332.440 746, 333 748.321, 333 711.101 C 333 693.046, 332.547 675.882, 331.992 672.960 C 330.507 665.130, 326.759 657.725, 321.354 651.948 C 312.318 642.287, 301.985 638.180, 285.049 637.518 C 279.247 637.291, 271.814 637.527, 268.531 638.044 M 566 638.491 C 547.467 642.654, 530.361 656.352, 521.631 674.022 C 505.147 707.382, 516.758 746.684, 548.500 764.972 C 570.893 777.874, 602.752 776.730, 623.856 762.268 C 629.300 758.537, 641 747.070, 641 745.465 C 641 744.807, 636.670 741.095, 631.377 737.216 L 621.754 730.162 616.627 735.401 C 606.806 745.435, 596.341 749.500, 582.081 748.818 C 571.582 748.316, 562.688 744.594, 555.159 737.552 C 549.623 732.373, 544.186 722.991, 543.775 717.907 L 543.500 714.500 595.750 714.241 L 648 713.982 648 708.063 C 648 675.246, 631.654 650.197, 603.795 640.324 C 594.598 637.065, 576.300 636.178, 566 638.491 M 715 638.882 C 708.064 641.121, 704.451 643.010, 698.682 647.413 L 694.097 650.913 693.799 645.206 L 693.500 639.500 680 639.500 L 666.500 639.500 666.243 705.278 L 665.986 771.057 679.743 770.778 L 693.500 770.500 694 727.476 L 694.500 684.452 697.810 677.731 C 703.078 667.035, 711.895 661.778, 724.563 661.778 C 736.694 661.778, 746.526 667.727, 751.376 678 C 753.414 682.319, 753.520 684.274, 754 726.500 L 754.500 770.500 768.250 770.778 L 782 771.056 781.983 726.778 C 781.969 692.637, 781.644 680.984, 780.562 675.878 C 776.708 657.699, 763.015 643.047, 745.500 638.361 C 738.250 636.422, 721.752 636.704, 715 638.882 M 852.224 638.956 C 828.460 645.381, 810.649 661.972, 803.480 684.361 C 797.930 701.691, 799.331 718.906, 807.679 735.978 C 811.480 743.751, 813.782 746.925, 820.474 753.617 C 834.284 767.427, 850.648 773.947, 871.590 773.983 C 888.841 774.012, 900.822 769.822, 914.500 758.976 C 920.456 754.253, 927 747.011, 927 745.144 C 927 744.608, 922.681 741.026, 917.402 737.183 L 907.804 730.196 902.025 735.975 C 898.495 739.505, 893.581 743.065, 889.394 745.127 C 882.869 748.339, 882.017 748.500, 871.521 748.500 C 861.222 748.500, 860.062 748.293, 853.820 745.335 C 836.143 736.960, 825.967 718.347, 828.699 699.382 C 834.004 662.556, 877.430 648.381, 902.626 675.250 C 905.076 677.862, 907.333 680, 907.643 680 C 909.060 680, 926.960 666.360, 926.979 665.266 C 927.014 663.196, 912.708 649.713, 906.666 646.123 C 895.455 639.460, 889.027 637.761, 873.500 637.355 C 861.901 637.051, 858.252 637.326, 852.224 638.956 M 984 638.555 C 962.459 643.182, 943.166 661.006, 935.353 683.500 C 932.852 690.701, 932.573 692.848, 932.559 705 C 932.541 720.563, 933.827 726.157, 940.129 737.924 C 949.176 754.817, 961.884 765.143, 981.025 771.153 C 987.418 773.160, 990.526 773.494, 1002.500 773.459 C 1015.076 773.423, 1017.289 773.144, 1024.256 770.714 C 1028.523 769.227, 1034.598 766.564, 1037.756 764.797 C 1043.952 761.332, 1059.471 746.886, 1058.868 745.146 C 1058.666 744.563, 1054.225 740.949, 1049 737.115 L 1039.500 730.145 1033.500 735.899 C 1026.222 742.879, 1023.963 744.318, 1016.137 746.954 C 1004.380 750.915, 988.751 749.071, 978.918 742.564 C 970.671 737.107, 961.589 724.525, 960.826 717.500 L 960.500 714.500 1013.359 714.241 L 1066.217 713.982 1065.486 702.741 C 1064.576 688.754, 1063.094 682.790, 1057.847 672 C 1052.617 661.244, 1041.016 649.253, 1031 644.250 C 1017.347 637.432, 999.372 635.253, 984 638.555 M 414.902 662.526 C 393.438 667.736, 378.109 690.751, 381.862 712.130 C 384.398 726.572, 393.511 738.477, 406.935 744.885 C 437.829 759.633, 472.622 733.433, 467.860 699.007 C 465.379 681.075, 450.566 665.304, 433.114 662.015 C 426.213 660.715, 421.859 660.837, 414.902 662.526 M 568.172 663.454 C 557.528 667.408, 548.286 676.843, 544.674 687.443 L 543.121 692 581.061 692 C 623.837 692, 620.737 692.724, 616.478 683.729 C 607.685 665.156, 586.984 656.468, 568.172 663.454 M 988.286 662.392 C 981.724 664.534, 975.861 668.372, 970.664 673.928 C 966.280 678.615, 961.033 687.758, 961.010 690.750 C 961.002 691.728, 969.247 692, 998.930 692 L 1036.860 692 1036.008 689.029 C 1033.167 679.122, 1024.042 668.742, 1014.218 664.240 C 1007.316 661.077, 995.005 660.200, 988.286 662.392 M 283 715.550 C 275.025 716.261, 266.132 717.361, 263.238 717.995 C 251.641 720.538, 245.951 730.772, 250.641 740.655 C 252.925 745.470, 257.531 748.665, 264.911 750.556 C 270.153 751.899, 272.304 751.978, 277.743 751.031 C 294.895 748.044, 304.969 737.033, 304.990 721.250 L 305 714 301.250 714.129 C 299.188 714.200, 290.975 714.839, 283 715.550" stroke="none" fill="#1c1c2c" fill-rule="evenodd"/></svg>
